Sources/FrostedUI/Resources/Icons.xcassets/chat20.imageset/chat-20.svg

<svg width="20" height="20" viewBox="0 0 20 20" fill="none" xmlns="http://www.w3.org/2000/svg" data-fui-icon="true">
  <path
    d="M10.4406 1.44824C14.9645 1.6778 18.5626 5.41899 18.5626 10L18.5509 10.4404C18.3291 14.8186 14.8186 18.3296 10.4406 18.5518L10.0001 18.5625C9.32198 18.5625 8.661 18.483 8.02747 18.333C7.01721 18.0938 6.14189 17.9448 5.34192 18.1543C4.80949 18.2938 4.29601 18.4485 3.82727 18.6006C3.07783 18.8437 2.35296 18.5575 1.89758 18.1025C1.44239 17.6475 1.15659 16.9234 1.39954 16.1738C1.55168 15.7048 1.70547 15.1906 1.84485 14.6572C2.05387 13.8572 1.90502 12.9815 1.66614 11.9717C1.51633 11.3382 1.43762 10.678 1.43762 10C1.43762 5.27118 5.27149 1.43779 10.0001 1.4375L10.4406 1.44824ZM10.0001 2.9375C6.09975 2.93774 2.93762 6.0997 2.93762 10C2.93762 10.5607 3.00269 11.1053 3.1261 11.627C3.36289 12.6279 3.61031 13.837 3.297 15.0361C3.14906 15.6023 2.9859 16.1447 2.82629 16.6367C2.79116 16.7455 2.81749 16.9014 2.95813 17.042C3.09884 17.1825 3.25541 17.2082 3.36438 17.1729C3.85517 17.0137 4.39712 16.8512 4.96204 16.7031C6.16172 16.389 7.37188 16.636 8.37317 16.873C8.8947 16.9965 9.43957 17.0625 10.0001 17.0625C13.9003 17.0621 17.0626 13.9003 17.0626 10C17.0626 6.22155 14.0948 3.13569 10.3634 2.94629L10.0001 2.9375ZM6.25012 8.75C6.94039 8.7501 7.50012 9.3097 7.50012 10C7.50012 10.6903 6.94039 11.2499 6.25012 11.25C5.55977 11.25 5.00012 10.6904 5.00012 10C5.00012 9.30964 5.55977 8.75 6.25012 8.75ZM10.0001 8.75C10.6904 8.7501 11.2501 9.3097 11.2501 10C11.2501 10.6903 10.6904 11.2499 10.0001 11.25C9.30977 11.25 8.75012 10.6904 8.75012 10C8.75012 9.30964 9.30977 8.75 10.0001 8.75ZM13.7501 8.75C14.4404 8.7501 15.0001 9.3097 15.0001 10C15.0001 10.6903 14.4404 11.2499 13.7501 11.25C13.0598 11.25 12.5001 10.6904 12.5001 10C12.5001 9.30964 13.0598 8.75 13.7501 8.75Z"
    fill="currentColor"
  />
</svg>

<svg xmlns="http://www.w3.org/2000/svg" width="20" height="20" fill="none" data-fui-icon="true" viewBox="0 0 20 20"><path fill="currentColor" d="M10.44 1.448A8.564 8.564 0 0 1 18.564 10l-.012.44a8.564 8.564 0 0 1-8.11 8.112l-.44.01c-.679 0-1.34-.079-1.974-.229-1.01-.24-1.885-.388-2.685-.179-.533.14-1.046.294-1.515.447-.75.243-1.474-.043-1.93-.498-.455-.456-.74-1.18-.497-1.93.152-.468.305-.982.445-1.516.209-.8.06-1.675-.179-2.685A8.563 8.563 0 0 1 10 1.438zM10 2.938a7.063 7.063 0 0 0-6.874 8.689c.237 1 .484 2.21.171 3.41a29 29 0 0 1-.47 1.6c-.036.108-.01.264.131.405.14.14.297.166.406.13.491-.158 1.033-.32 1.598-.469 1.2-.314 2.41-.067 3.411.17a7.063 7.063 0 1 0 1.99-13.927zM6.25 8.75a1.25 1.25 0 1 1 0 2.5 1.25 1.25 0 0 1 0-2.5m3.75 0a1.25 1.25 0 1 1 0 2.5 1.25 1.25 0 0 1 0-2.5m3.75 0a1.25 1.25 0 1 1 0 2.5 1.25 1.25 0 0 1 0-2.5"/></svg>
